assets/icons/bookmark_filled.svg

<svg width="21" height="20" viewBox="0 0 21 20" fill="none" xmlns="http://www.w3.org/2000/svg">
<path d="M10.9255 1.04224C12.4583 1.04223 13.67 1.04221 14.6179 1.16499C15.5908 1.29101 16.3796 1.55617 17.004 2.15776C17.6317 2.76249 17.9114 3.53176 18.0437 4.47994C18.1717 5.39765 18.1717 6.56896 18.1717 8.04178V15.0387C18.1717 15.9534 18.1718 16.7133 18.084 17.2843C17.993 17.8752 17.7812 18.4502 17.197 18.7622C16.6761 19.0403 16.103 18.9837 15.6172 18.8362C15.1258 18.6871 14.6263 18.4163 14.169 18.1273C13.7072 17.8356 13.2082 17.4687 12.8146 17.1778C12.429 16.8927 12.1191 16.6637 11.8826 16.5213C11.5496 16.3208 11.3395 16.1952 11.169 16.1148C11.0117 16.0407 10.9353 16.0289 10.88 16.0289C10.8248 16.0289 10.7484 16.0407 10.5911 16.1148C10.4207 16.1952 10.2105 16.3208 9.87746 16.5213C9.64096 16.6637 9.33121 16.8927 8.9455 17.1778C8.55188 17.4687 8.05287 17.8356 7.59117 18.1273C7.13383 18.4163 6.63433 18.6871 6.14291 18.8362C5.65705 18.9837 5.08401 19.0403 4.56303 18.7622C3.97886 18.4502 3.76703 17.8752 3.67616 17.2843C3.58832 16.7133 3.58835 15.9534 3.58838 15.0388V8.04176C3.58837 6.56895 3.58836 5.39765 3.71642 4.47994C3.84874 3.53176 4.12838 2.76249 4.75605 2.15776C5.38047 1.55617 6.16931 1.29101 7.14219 1.16499C8.09005 1.04221 9.3018 1.04223 10.8345 1.04224H10.9255Z" fill="white"/>
</svg>

<svg xmlns="http://www.w3.org/2000/svg" width="21" height="20" fill="none" viewBox="0 0 21 20"><path fill="#fff" d="M10.926 1.042c1.532 0 2.744 0 3.692.123.973.126 1.762.391 2.386.993.628.604.907 1.374 1.04 2.322.128.918.128 2.089.128 3.562v6.997c0 .914 0 1.674-.088 2.245-.091.591-.303 1.166-.887 1.478-.52.278-1.094.222-1.58.074-.491-.149-.99-.42-1.448-.709-.462-.291-.96-.658-1.354-.95a14 14 0 0 0-.932-.656 9 9 0 0 0-.714-.406c-.157-.074-.234-.086-.289-.086s-.132.012-.289.086c-.17.08-.38.206-.714.406-.236.143-.546.372-.932.657-.393.29-.892.658-1.354.95-.457.288-.957.56-1.448.708-.486.148-1.059.204-1.58-.074-.584-.312-.796-.887-.887-1.478-.088-.57-.088-1.33-.088-2.245V8.042c0-1.473 0-2.644.128-3.562.133-.948.412-1.718 1.04-2.322.624-.602 1.413-.867 2.386-.993.948-.123 2.16-.123 3.693-.123z"/></svg>
